!!!OTL: Ringeltanz
!!!ARE: Europa, Mitteleuropa, Deutschland
!!!SCT: A0285
!!!YEM: Copyright 1995, estate of Helmut Schaffrath.
**kern
*ICvox
*Ivox
*M3/2
*k[b-]
*F:
=1
{1f
2f
=2
1a
2b-
=3
1cc
2cc
=4
1cc}
{2cc
=5
2f
2f
2f
=6
1a
2b-
=7
1.cc
=8
1cc}
{2cc
=9
1dd
2cc
=10
1cc
2b-
=11
1a
2a
=12
1a}
{2a
=13
2g
2g
2g
=14
1g
2g
=15
1cc
2a
=16
2b-
1g
=17
1.f}
==
!!!AGN: Romanze, Ballade, Lied
!! Geistl Ringeltentze 1550 No. 12.
!!!ONB: ESAC (Essen Associative Code) Database: ALTDEU
!!!AMT: simple triple
!!!AIN: vox
!!!EED: Helmut Schaffrath
!!!EEV: 1.0
*-
